X:1
T:Title
%%score { ( 1 3 ) | ( 2 4 ) }
L:1/8
M:6/8
K:F
V:1 treble nm="Grand Piano"
V:3 treble 
V:2 bass 
V:4 bass 
V:1
 z3 z2[Q:1/4=90] C | FFF AGF | c6 | FFF A>A[CFc] | [CEG]3- [CEG]2 c | dcA F2 F | [DG][DF]D C2 C | %7
 F>FF [FA]>[FA][EG] |[M:5/8] F-F- F3 |[M:1/8] F |[M:3/4] A>G FF EF |[M:13/16] [DG]>[DF]DDC3/2C | %12
[M:3/4] F>F FA GF | c6 | dc A F2 F/F/ | [DG][DF] D C2 F[Q:1/4=89][Q:1/4=87] | %16
 A>G FG- G/F/G[Q:1/4=86][Q:1/4=85][Q:1/4=83][Q:1/4=82][Q:1/4=81][Q:1/4=79][Q:1/4=78][Q:1/4=77][Q:1/4=75][Q:1/4=74][Q:1/4=73][Q:1/4=71] | %17
[M:5/8] [A,CF]-[A,CF]- [A,CF]3[Q:1/4=70][Q:1/4=69] |] %18
V:2
 z3 z2 [F,A,] | [F,A,C][F,A,C][F,A,C] [F,CF][F,B,F][F,A,] | G,2 A, G,2 [F,A,] | %3
 [F,A,C][F,A,C][F,A,C] [F,CF]>[F,CF]A,, | C,3- C,2 [F,A,F] | %5
 [F,B,F][F,A,F][F,CF] [F,A,C]2 [F,A,C] | [B,,B,][B,,B,][D,F,B,] [F,A,]2 [F,A,] | %7
 [F,A,C]>[F,A,C][F,A,C] [C,C]>[C,C][B,,B,] |[M:5/8] [F,A,C]-[F,A,C]- [F,A,C]3 |[M:1/8] [F,A,C] | %10
[M:3/4] [F,CF]>[F,B,C] [F,A,C][F,A,C] [G,B,C][F,A,C] | %11
[M:13/16] [B,,B,]>[B,,B,][D,F,B,][F,B,][F,A,]3/2[F,A,] | %12
[M:3/4] [F,A,C]>[F,A,C] [F,A,C][F,CF] [F,B,C][F,A,C] | G,2 A, B,2 [F,A,F] | %14
 [F,B,F][F,A,F] [F,CF] [F,A,C]2 [F,A,C]/[F,A,C]/ | [B,,B,][B,,B,] [D,F,B,] [F,A,]2 [F,A,C] | %16
 [F,CF]>[F,B,D] [F,A,C][C,B,C]- [C,B,C]/[C,A,C]/[C,B,C] |[M:5/8] [F,,F,]-[F,,F,]- [F,,F,]3 |] %18
V:3
 x6 | x6 | E2 F E2 C | x6 | x6 | x6 | x6 | x6 |[M:5/8] x5 |[M:1/8] x |[M:3/4] x6 |[M:13/16] x13/2 | %12
[M:3/4] x6 | E2 F E2 c | x6 | x6 | x6 |[M:5/8] x5 |] %18
V:4
 x6 | x6 | C,6 | x6 | x6 | x6 | x6 | x6 |[M:5/8] x5 |[M:1/8] x |[M:3/4] x6 |[M:13/16] x13/2 | %12
[M:3/4] x6 | C,6 | x6 | x6 | x6 |[M:5/8] x5 |] %18

